svg/color/cube.svg

<?xml version="1.0" encoding="UTF-8" ?>
<!DOCTYPE svg PUBLIC "-//W3C//DTD SVG 1.1//EN" "http://www.w3.org/Graphics/SVG/1.1/DTD/svg11.dtd">
<svg width="250pt" height="250pt" viewBox="0 0 250 250" version="1.1" xmlns="http://www.w3.org/2000/svg">
<g id="#ffffffff">
<path fill="#ffffff" opacity="1.00" d=" M 0.00 0.00 L 118.41 0.00 C 89.77 1.68 61.79 13.24 40.70 32.74 C 15.43 55.63 0.47 89.22 0.00 123.29 L 0.00 0.00 Z" />
<path fill="#ffffff" opacity="1.00" d=" M 130.70 0.00 L 250.00 0.00 L 250.00 118.68 C 248.09 85.25 232.64 52.70 207.18 30.81 C 186.16 12.23 158.69 1.35 130.70 0.00 Z" />
<path fill="#ffffff" opacity="1.00" d=" M 104.55 27.34 C 123.34 27.34 142.13 27.29 160.93 27.37 C 152.25 44.38 143.83 61.51 135.27 78.58 C 116.52 78.58 97.77 78.62 79.02 78.56 C 87.43 61.44 96.05 44.42 104.55 27.34 Z" />
<path fill="#ffffff" opacity="1.00" d=" M 99.30 125.34 C 118.12 125.25 136.96 125.26 155.79 125.34 C 147.07 142.32 138.69 159.47 130.12 176.52 C 111.39 176.56 92.65 176.56 73.92 176.52 C 82.10 159.33 90.93 142.45 99.30 125.34 Z" />
<path fill="#ffffff" opacity="1.00" d=" M 0.00 126.63 C 0.45 160.98 15.63 194.86 41.27 217.76 C 62.28 236.98 90.04 248.33 118.42 250.00 L 0.00 250.00 L 0.00 126.63 Z" />
<path fill="#ffffff" opacity="1.00" d=" M 219.69 206.58 C 238.00 185.62 248.52 158.34 250.00 130.61 L 250.00 250.00 L 130.70 250.00 C 164.64 248.47 197.69 232.52 219.69 206.58 Z" />
</g>
<g id="#00a5ffff">
<path fill="#00a5ff" opacity="1.00" d=" M 118.41 0.00 L 130.70 0.00 C 158.69 1.35 186.16 12.23 207.18 30.81 C 232.64 52.70 248.09 85.25 250.00 118.68 L 250.00 130.61 C 248.52 158.34 238.00 185.62 219.69 206.58 C 197.69 232.52 164.64 248.47 130.70 250.00 L 118.42 250.00 C 90.04 248.33 62.28 236.98 41.27 217.76 C 15.63 194.86 0.45 160.98 0.00 126.63 L 0.00 123.29 C 0.47 89.22 15.43 55.63 40.70 32.74 C 61.79 13.24 89.77 1.68 118.41 0.00 M 104.55 27.34 C 96.05 44.42 87.43 61.44 79.02 78.56 C 97.77 78.62 116.52 78.58 135.27 78.58 C 141.96 93.72 148.77 108.80 155.37 123.98 C 155.60 123.88 156.04 123.69 156.27 123.60 C 162.93 106.77 169.85 90.03 176.33 73.13 C 170.97 57.96 166.18 42.58 160.93 27.37 C 142.13 27.29 123.34 27.34 104.55 27.34 M 99.30 125.34 C 90.93 142.45 82.10 159.33 73.92 176.52 C 92.65 176.56 111.39 176.56 130.12 176.52 C 136.74 191.71 143.59 206.80 150.23 221.98 L 151.03 221.59 C 157.48 205.79 163.70 189.88 170.10 174.05 C 170.61 172.75 171.28 171.30 170.61 169.90 C 165.71 155.04 160.71 140.20 155.79 125.34 C 136.96 125.26 118.12 125.25 99.30 125.34 Z" />
</g>
<g id="#1e1d52ff">
<path fill="#1e1d52" opacity="1.00" d=" M 135.27 78.58 C 143.83 61.51 152.25 44.38 160.93 27.37 C 166.18 42.58 170.97 57.96 176.33 73.13 C 169.85 90.03 162.93 106.77 156.27 123.60 C 156.04 123.69 155.60 123.88 155.37 123.98 C 148.77 108.80 141.96 93.72 135.27 78.58 Z" />
<path fill="#1e1d52" opacity="1.00" d=" M 155.79 125.34 C 160.71 140.20 165.71 155.04 170.61 169.90 C 171.28 171.30 170.61 172.75 170.10 174.05 C 163.70 189.88 157.48 205.79 151.03 221.59 L 150.23 221.98 C 143.59 206.80 136.74 191.71 130.12 176.52 C 138.69 159.47 147.07 142.32 155.79 125.34 Z" />
</g>
</svg>

<?xml version="1.0" encoding="utf-8"?>
<!-- Generator: Adobe Illustrator 26.0.3, SVG Export Plug-In . SVG Version: 6.00 Build 0)  -->
<svg version="1.1" id="Layer_1" xmlns="http://www.w3.org/2000/svg" xmlns:xlink="http://www.w3.org/1999/xlink" x="0px" y="0px"
	 viewBox="0 0 250 250" style="enable-background:new 0 0 250 250;" xml:space="preserve">
<style type="text/css">
	.st0{fill:#FFFFFF;}
	.st1{fill:#00A5FF;}
	.st2{fill:#1E1D52;}
</style>
<g id="_x23_ffffffff">
	<path class="st0" d="M104.6,27.3c18.8,0,37.6,0,56.4,0c-8.7,17-17.1,34.1-25.7,51.2c-18.8,0-37.5,0-56.3,0
		C87.4,61.4,96.1,44.4,104.6,27.3z"/>
	<path class="st0" d="M99.3,125.3c18.8-0.1,37.7-0.1,56.5,0c-8.7,17-17.1,34.1-25.7,51.2c-18.7,0-37.5,0-56.2,0
		C82.1,159.3,90.9,142.4,99.3,125.3z"/>
</g>
<g id="_x23_00a5ffff">
	<path class="st1" d="M118.4,0h12.3c28,1.4,55.5,12.2,76.5,30.8c25.5,21.9,40.9,54.4,42.8,87.9v11.9c-1.5,27.7-12,55-30.3,76
		c-22,25.9-55.1,41.9-89,43.4h-12.3c-28.4-1.7-56.1-13-77.1-32.2C15.6,194.9,0.4,161,0,126.6v-3.3c0.5-34.1,15.4-67.7,40.7-90.6
		C61.8,13.2,89.8,1.7,118.4,0 M104.6,27.3C96.1,44.4,87.4,61.4,79,78.6c18.8,0.1,37.5,0,56.3,0c6.7,15.1,13.5,30.2,20.1,45.4
		c0.2-0.1,0.7-0.3,0.9-0.4c6.7-16.8,13.6-33.6,20.1-50.5C171,58,166.2,42.6,160.9,27.4C142.1,27.3,123.3,27.3,104.6,27.3
		 M99.3,125.3c-8.4,17.1-17.2,34-25.4,51.2c18.7,0,37.5,0,56.2,0c6.6,15.2,13.5,30.3,20.1,45.5l0.8-0.4
		c6.4-15.8,12.7-31.7,19.1-47.5c0.5-1.3,1.2-2.8,0.5-4.2c-4.9-14.9-9.9-29.7-14.8-44.6C137,125.3,118.1,125.2,99.3,125.3z"/>
</g>
<g id="_x23_1e1d52ff">
	<path class="st2" d="M135.3,78.6c8.6-17.1,17-34.2,25.7-51.2c5.2,15.2,10,30.6,15.4,45.8c-6.5,16.9-13.4,33.6-20.1,50.5
		c-0.2,0.1-0.7,0.3-0.9,0.4C148.8,108.8,142,93.7,135.3,78.6z"/>
	<path class="st2" d="M155.8,125.3c4.9,14.9,9.9,29.7,14.8,44.6c0.7,1.4,0,2.9-0.5,4.2c-6.4,15.8-12.6,31.7-19.1,47.5l-0.8,0.4
		c-6.6-15.2-13.5-30.3-20.1-45.5C138.7,159.5,147.1,142.3,155.8,125.3z"/>
</g>
</svg>
